X: 25
T: Come, Let Us Learn to Sing
%R: air, march
B: "The Everyday Song Book", 1927
F: http://www.library.pitt.edu/happybirthday/pdf/The_Everyday_Song_Book.pdf
Z: 2017 John Chambers <jc:trillian.mit.edu>
M: 4/4
L: 1/8
K: F
% - - - - - - - - - - - - - - -
[| c2 c B A2 G2 | F6 F G | A2 B c d2 e2 | f6 z2 | c2 c B
w: Come, let us learn to sing, Do re me fa sol la ti do! Loud let our
%
   A2 G2 | F6 F G | A2 B c d2 e2 | f6 z2 | c2 A2 c2 A2 | f2 d2 c4 |
w: voi-ces ring, Do re me fa sol la ti do. Let us sing with o-pen sound,
%
   c2 A2 c2 A2 | f2 d2 c4 | f2 e d c2 B2 | A4 G4 | F6 z2 |]
w: With our voi-ces full and round, Do ti la sol fa mi re do.
% - - - - - - - - - - - - - - -
